X:6621
T:The Chicago Reel
O:england
M:C
L:1/8
S:O'Neill's Music of Ireland/Krassen Edition.
R:reel
K:G
AB|cded cAGE|GGGE GAcd|ecgc acgc|eaag (3efg ed|cded cAGE|GGGE GAcd|ea
(3a^ga e=ged|cABGA:|
|:AB|cdef gfga|gedc BGGB|cdef g ed|eaag aged|cdef ggge|aaaf ggge|gggd (3
efg
ed|cABG A:|


